X: 29618
T: North Side Of The Grampians, The
R: strathspey
M: 4/4
K: Dmajor
F>G A>B A<F F<d|F/G/A A<d d<f e2|F>G A>B A<F F<A|G>E C>A, D/E/FG2:|
|:f>d f/g/a f<d d>g|f<d f>g (3fga (3gab|1 f>d f/g/a f<d d>f|g<e c<A d/e/fg2:|
[2 (3agf (3edc (3dcB (3AGF|G>E C>A, D/E/FG2||

